X: 27698
T: Morna
R: reel
M: 4/4
K: Bminor
BA G2 AccA|B/c/d cA edcz|BA G2 AccA|B/c/d cA Bzed|
BA G2 AccA|B/c/d cA edcz|BA G2 AccA|B/c/d cA B2 z2|
Bdfg g f3|DFGd gfed|deed efff|fagf e2 gf|
Bdfg g f3|DFGd gfed|e2 ed ed d/d/d|cedc B3z|

